icons/svgs/flag-checkered-solid.svg

<svg width="24" height="24" viewBox="0 0 24 24" fill="none" xmlns="http://www.w3.org/2000/svg">
<path d="M4.5 2C5.16406 2 5.75 2.58594 5.75 3.25V3.875L8.44531 3.21094C9.92969 2.85938 11.4922 3.01562 12.8594 3.71875C14.6562 4.61719 16.8047 4.61719 18.6016 3.71875L18.9922 3.52344C19.7734 3.13281 20.75 3.71875 20.75 4.61719V15.5156C20.75 16.0625 20.3984 16.5312 19.9297 16.6875L18.5625 17.1953C16.7656 17.8984 14.7344 17.7812 13.0156 16.9219C11.5312 16.1797 9.85156 15.9844 8.25 16.375L5.75 17V20.75C5.75 21.4531 5.16406 22 4.5 22C3.79688 22 3.25 21.4531 3.25 20.75V17.625V15.0469V4.5V3.25C3.25 2.58594 3.79688 2 4.5 2ZM5.75 9.34375L8.25 8.79688V11.3359L5.75 11.8828V14.4219L7.625 13.9531C7.82031 13.9141 8.01562 13.875 8.25 13.8359V11.3359L9.73438 11.0234C10.0859 10.9453 10.3984 10.9062 10.75 10.9453V8.44531C11.2578 8.44531 11.8047 8.52344 12.3125 8.67969L13.25 8.95312V11.5703L11.6094 11.0625C11.3359 10.9844 11.0234 10.9453 10.75 10.9453V13.7188C11.5703 13.7969 12.4297 13.9922 13.25 14.2656V11.5703L14.1094 11.8047C14.6562 11.9609 15.2031 12.0781 15.75 12.1172V9.57812C15.4375 9.57812 15.125 9.5 14.8125 9.42188L13.25 8.95312V6.53125C12.7422 6.375 12.2344 6.17969 11.7266 5.94531C11.4141 5.78906 11.0625 5.67188 10.75 5.59375V8.44531C10.2422 8.40625 9.73438 8.44531 9.22656 8.5625L8.25 8.79688V5.82812L5.75 6.45312V9.34375ZM15.75 15.125C16.375 15.2031 17.0391 15.0859 17.7031 14.8516L18.25 14.6562V11.8438L17.9375 11.9219C17.1953 12.0781 16.4531 12.1562 15.75 12.1172V15.125ZM18.25 9.30469V6.53125C17.4297 6.76562 16.5703 6.88281 15.75 6.88281V9.57812C16.2578 9.65625 16.8438 9.61719 17.3516 9.5L18.25 9.30469Z" fill="black"/>
</svg>

<svg xmlns="http://www.w3.org/2000/svg" width="24" height="24" fill="currentColor" class="icon-flag-checkered-solid" viewBox="0 0 24 24">
  <mask id="a" width="18" height="20" x="3" y="2" maskUnits="userSpaceOnUse" style="mask-type:alpha">
    <path d="M4.5 2c.664 0 1.25.586 1.25 1.25v.625l2.695-.664c1.485-.352 3.047-.195 4.414.508a6.45 6.45 0 0 0 5.743 0l.39-.196c.781-.39 1.758.196 1.758 1.094v10.899c0 .547-.352 1.015-.82 1.172l-1.367.507c-1.797.703-3.829.586-5.547-.273a6.95 6.95 0 0 0-4.766-.547L5.75 17v3.75c0 .703-.586 1.25-1.25 1.25-.703 0-1.25-.547-1.25-1.25V3.25C3.25 2.586 3.797 2 4.5 2m1.25 7.344 2.5-.547v2.539l-2.5.547v2.539l1.875-.469c.195-.039.39-.078.625-.117v-2.5l1.484-.313c.352-.078.664-.117 1.016-.078v-2.5c.508 0 1.055.078 1.563.235l.937.273v2.617l-1.64-.508a3.3 3.3 0 0 0-.86-.117v2.774c.82.078 1.68.273 2.5.547V11.57l.86.235a8 8 0 0 0 1.64.312V9.578c-.312 0-.625-.078-.937-.156l-1.563-.469V6.531a12 12 0 0 1-1.523-.586 5 5 0 0 0-.977-.351v2.851q-.762-.058-1.523.117l-.977.235V5.828l-2.5.625zm10 5.781c.625.078 1.29-.04 1.953-.273l.547-.196v-2.812l-.312.078c-.743.156-1.485.234-2.188.195zm2.5-5.82V6.53c-.82.235-1.68.352-2.5.352v2.695a4.4 4.4 0 0 0 1.602-.078z"/>
  </mask>
  <g mask="url(#a)">
    <path d="M0 0h24v24H0z"/>
  </g>
</svg>
